X:56
T:Forked Deer
K:D
M:4/4
L:1/8
Z:abc-transcription Josh Larios <hades@elsewhere.org>, 2014.04.15
B:Sarah Comer, Dusty Strings dance band class.
|: A2 || "D"defga2f2 | "G"gfeg "D"fed2 | defga2f2 | "Em"gfed "A"cABc |
"D"defga2f2 | "G"gfeg "D"fed2 | dBAF "G"GBAG |1 "A7"F2"D"D2D2 :|2 "A7"F2"D"D2D4 ||
|:"A"A4c4 | ABAF "D"E2D2 | "A"A4c4 | "D"dBAFD4 |
"A"A4c4 | ABAF "D"E2D2 | DEFG "G"ABcd | "A"efec "D"d4 :|

